app/images/src/socials/instagram.svg

<svg width="30" height="30" viewBox="0 0 30 30" fill="none"
    xmlns="http://www.w3.org/2000/svg">
    <circle cx="15" cy="15" r="14.25" stroke="white" stroke-width="1.5"/>
    <path fill-rule="evenodd" clip-rule="evenodd" d="M12.2174 8.29078C12.9374 8.25802 13.1674 8.25 15.0006 8.25H14.9985C16.8323 8.25 17.0615 8.25802 17.7815 8.29078C18.5001 8.32369 18.9909 8.43746 19.4212 8.60438C19.8656 8.77665 20.2411 9.00727 20.6166 9.38275C20.992 9.75794 21.2227 10.1345 21.3956 10.5785C21.5616 11.0077 21.6755 11.4982 21.7092 12.2168C21.7416 12.9368 21.75 13.1669 21.75 15.0001C21.75 16.8333 21.7416 17.0628 21.7092 17.7828C21.6755 18.5011 21.5616 18.9918 21.3956 19.4211C21.2227 19.8649 20.992 20.2415 20.6166 20.6167C20.2415 20.9922 19.8655 21.2234 19.4216 21.3958C18.9922 21.5627 18.5011 21.6765 17.7825 21.7094C17.0625 21.7421 16.8331 21.7501 14.9998 21.7501C13.1667 21.7501 12.9368 21.7421 12.2168 21.7094C11.4983 21.6765 11.0077 21.5627 10.5782 21.3958C10.1345 21.2234 9.75794 20.9922 9.38289 20.6167C9.00755 20.2415 8.77693 19.8649 8.60438 19.4209C8.4376 18.9918 8.32383 18.5012 8.29078 17.7826C8.25816 17.0626 8.25 16.8333 8.25 15.0001C8.25 13.1669 8.25844 12.9367 8.29064 12.2167C8.32299 11.4983 8.43689 11.0077 8.60424 10.5784C8.77721 10.1345 9.00784 9.75794 9.38331 9.38275C9.7585 9.00741 10.1351 8.77679 10.5791 8.60438C11.0082 8.43746 11.4988 8.32369 12.2174 8.29078ZM14.7746 9.46679C14.6381 9.46672 14.5116 9.46667 14.394 9.46685V9.46516C13.136 9.46657 12.8947 9.47501 12.272 9.50313C11.6139 9.53337 11.2565 9.64306 11.0186 9.73587C10.7036 9.8585 10.4786 10.0047 10.2423 10.241C10.0061 10.4773 9.85953 10.7023 9.73719 11.0173C9.6448 11.2552 9.53483 11.6124 9.50473 12.2705C9.47239 12.9821 9.46592 13.1947 9.46592 14.9973C9.46592 16.7998 9.47239 17.0136 9.50473 17.7251C9.53469 18.3833 9.6448 18.7405 9.73719 18.9781C9.85982 19.2933 10.0061 19.5177 10.2423 19.754C10.4786 19.9902 10.7036 20.1365 11.0186 20.2588C11.2567 20.3512 11.6139 20.4612 12.272 20.4915C12.9836 20.5239 13.1972 20.5309 14.9996 20.5309C16.8018 20.5309 17.0156 20.5239 17.7272 20.4915C18.3853 20.4615 18.7428 20.3518 18.9804 20.2589C19.2956 20.1366 19.5199 19.9904 19.7561 19.7541C19.9924 19.518 20.1389 19.2937 20.2613 18.9787C20.3536 18.741 20.4636 18.3838 20.4937 17.7257C20.5261 17.0141 20.5331 16.8004 20.5331 14.999C20.5331 13.1975 20.5261 12.9838 20.4937 12.2722C20.4638 11.6141 20.3536 11.2569 20.2613 11.0192C20.1386 10.7042 19.9924 10.4792 19.7561 10.243C19.52 10.0067 19.2954 9.86046 18.9804 9.73812C18.7425 9.64573 18.3853 9.53576 17.7272 9.50566C17.0155 9.47332 16.8018 9.46685 14.9996 9.46685C14.9217 9.46685 14.8467 9.46682 14.7746 9.46679Z" fill="white"/>
    <path fill-rule="evenodd" clip-rule="evenodd" d="M18.6044 10.5872C18.1572 10.5872 17.7944 10.9496 17.7944 11.3969C17.7944 11.8441 18.1572 12.2069 18.6044 12.2069C19.0516 12.2069 19.4144 11.8441 19.4144 11.3969C19.4144 10.9497 19.0516 10.5869 18.6044 10.5869V10.5872Z" fill="white"/>
    <path fill-rule="evenodd" clip-rule="evenodd" d="M11.5339 14.9997C11.5339 13.0854 13.086 11.5333 15.0002 11.5333C16.9146 11.5333 18.4663 13.0854 18.4663 14.9997C18.4663 16.9141 16.9147 18.4654 15.0004 18.4654C13.086 18.4654 11.5339 16.9141 11.5339 14.9997ZM17.248 15C17.248 13.7573 16.2405 12.75 14.998 12.75C13.7552 12.75 12.7479 13.7573 12.7479 15C12.7479 16.2426 13.7552 17.2501 14.998 17.2501C16.2405 17.2501 17.248 16.2426 17.248 15Z" fill="white"/>
</svg>

<svg width="30" height="30" viewBox="0 0 30 30" fill="none" xmlns="http://www.w3.org/2000/svg" preserveAspectRatio="xMidYMid" data-v-9bbc42a4="" class="">
    <circle cx="15" cy="15" r="14.25" stroke="currentColor" stroke-width="1.5"></circle>
    <path fill-rule="evenodd" clip-rule="evenodd" d="M12.217 8.29c.72-.032.95-.04 2.784-.04h-.002c1.833 0 2.062.008 2.783.04.718.034 1.209.147 1.64.314a3.3 3.3 0 011.195.779c.375.375.606.752.779 1.196.166.429.28.92.313 1.638.033.72.041.95.041 2.783s-.008 2.063-.04 2.783c-.035.718-.148 1.209-.314 1.638-.173.444-.404.82-.78 1.196a3.302 3.302 0 01-1.194.779c-.43.167-.92.28-1.64.313-.72.033-.949.041-2.782.041-1.833 0-2.063-.008-2.783-.04-.719-.034-1.21-.147-1.639-.314a3.305 3.305 0 01-1.195-.78 3.307 3.307 0 01-.779-1.195c-.166-.43-.28-.92-.313-1.638-.033-.72-.041-.95-.041-2.783s.008-2.063.04-2.783c.033-.719.147-1.21.314-1.639.173-.444.404-.82.78-1.195a3.305 3.305 0 011.195-.779c.43-.167.92-.28 1.638-.313zm2.558 1.177h-.381v-.002c-1.258.002-1.5.01-2.122.038-.658.03-1.015.14-1.253.233-.315.122-.54.269-.777.505a2.092 2.092 0 00-.505.776c-.092.238-.202.595-.232 1.254-.033.711-.04.924-.04 2.726 0 1.803.007 2.017.04 2.728.03.658.14 1.015.232 1.253.123.315.27.54.505.776.237.236.462.383.777.505.238.092.595.202 1.253.232.712.033.925.04 2.728.04 1.802 0 2.016-.007 2.727-.04.658-.03 1.016-.14 1.253-.232.316-.122.54-.269.776-.505s.383-.46.505-.775c.093-.238.203-.595.233-1.253.032-.712.04-.926.04-2.727 0-1.802-.008-2.015-.04-2.727-.03-.658-.14-1.015-.233-1.253a2.095 2.095 0 00-.505-.776 2.087 2.087 0 00-.776-.505c-.238-.092-.595-.202-1.253-.232-.712-.033-.925-.04-2.727-.04h-.225z" fill="currentColor"></path><path fill-rule="evenodd" clip-rule="evenodd" d="M18.604 10.587a.81.81 0 100 1.62.81.81 0 000-1.62zM11.534 15a3.467 3.467 0 116.933 0 3.467 3.467 0 01-6.933 0zm5.714 0a2.25 2.25 0 10-4.5 0 2.25 2.25 0 004.5 0z" fill="currentColor"></path>
</svg>
